!!!COM: Peter Cornelius
!!!CNT: Deutsch
!!!TXO: Deutsch
!!!OTL: Treue
!!!LYR: Cornelius
!!!OPR: Trauer und Trost
!!!OPS: Op.3
!!!ONM: No. 5
!!!ENC: Ben Fuhrman
!!!YOR: CD Sheet Music, Mid-Romantic German Lieder: The Ultimate Collection.
!!!YOR: CD Sheet Music, LLC 2001
!!!ODT: 1854
!!NB: Only vocal melody encoded.
!!NB: First instance of melodic material only encoded.
!!created: 2/1/10 4:58PM
!!proofed and posted: 2/1/10 4:59PM
**kern	**silbe
*clef G2	*
*k[f#]	*
*M2/4	*
*MM[Ma2ssig langsam]	*
{8.dd	{Dein
16b	Ge-
=1	=1
8b	-den-
8g	-ken
8r	.
16g	lebt
16g	in
=2	=2
4.a	Lie-
8cc	-dern
=3	=3
4.b}	fort;}
8r	.
=4	=4
{8.ee	{Lie-
16dd	-der,
16cc	die
16b	der
16a	tief-
16g	-sten
=5	=5
8.dd	Brust
16a	ent-
8a	-wal-
8b	-len,
=6	=6
8.b	sa-
16a	-gen
8g	mir:
8ee	du
=7	=7
*M3/4	*
16dd	lebst
16b	in
16cc	ih-
16b	-nen
8b	al-
8a}	-len,}
8r	.
{16a	{und
16a	ge-
=8	=8
*M2/4	*
4.dd	wiss
8cc	die
=9	=9
4.b	Lie-
8a	-der
=10	=10
4.g	hal-
8f#	-ten
=11	=11
4.g}	Wort.}
8r	.
=12	=12
2r	.
=13	=13
4r	.
{8.dd	{Dein
16b	Ge-
=14	=14
8b	den-
8g	-ken
8r	.
16g	blu2ht
16g	in
=15	=15
4.a	Tra2-
8cc	-nen
=16	=16
4.b}	fort;}
8r	.
=17	=17
{8.ee	{Tra2-
16dd	-nen,
16cc	aus
16b	des
16a	Her-
16g	-zens
=18	=18
8.dd	Hei-
16a	-lig-
8a	-tu-
8b	-me,
=19	=19
8.b	na2h-
16a	-ren
16a	tau-
16f#	-end
16g	der
16b	Er-
=20	=20
*M3/4	*
8.ee	-inn'-
!! This is not dotted in the score, but needs to be in order to have the meter make sense.
16dd	-rung
8dd	Blu-
8cc}	-me,}
16r	.
{8b	{in
16a	dem
=21	=21
*M2/4	*
4.dd	Tau
8cc	blu2ht
=22	=22
4.b	dein
8a	Ge-
=23	=23
4.g	-den-
8f#	-ken
=24	=24
4g}	fort.}
4r	.
=25	=25
2r	.
=26	=26
4r	.
{8.dd	{Dein
16b	Ge-
=27	=27
8b	den-
8g	-ken
8r	.
16g	lebt
16g	in
=28	=28
4.a	Tra2u-
8cc	-men
=29	=29
4.b}	fort;}
8r	.
=30	=30
*k[b-e-a-d-]	*
{8.cc	{Tra2u-
16a-	-me,
16f	die
16a-	dein
16g	Bild
16dd-	ver-
=31	=31
8.cc	kla2rt
16a-	mir
8a-	zei-
8e-	-gen,
=32	=32
8r	.
16a-	sa-
16a-	-gen:
8r	.
16a-	dass
16a-	du
=33	=33
*k[f#}	*
*M3/4	*
16an	e-
16en	-wig
16.fn	bist
32g	mein
8g	ei-
8f}	-gen,}
16r	.
{8fn	{und
16fn	ge-
=34	=34
*M2/4	*
4.dd	wiss,
8cc	die
=35	=35
4.b	Tra2u-
8a	-me
=36	=36
4.g	hal-
8f#	-ten
=37	=37
4.g}	Wort!}
8r	.
==	==
*-	*-
